src/assets/icon-youtube.svg

<svg width="44" height="38" viewBox="0 0 44 38" fill="none" xmlns="http://www.w3.org/2000/svg">
<rect x="0.000976562" width="44" height="38" rx="19" fill="#FBFCFE"/>
<path d="M35.2922 11.69C35.1744 11.2292 34.9488 10.803 34.6339 10.4465C34.3189 10.0901 33.9238 9.81366 33.481 9.64C29.196 7.985 22.376 8 22.001 8C21.626 8 14.806 7.985 10.521 9.64C10.0782 9.81366 9.68302 10.0901 9.36809 10.4465C9.05317 10.803 8.82751 11.2292 8.70973 11.69C8.38598 12.9375 8.00098 15.2175 8.00098 19C8.00098 22.7825 8.38598 25.0625 8.70973 26.31C8.82733 26.771 9.05291 27.1975 9.36785 27.5542C9.68278 27.9108 10.078 28.1875 10.521 28.3613C14.626 29.945 21.051 30 21.9185 30H22.0835C22.951 30 29.3797 29.945 33.481 28.3613C33.9239 28.1875 34.3192 27.9108 34.6341 27.5542C34.949 27.1975 35.1746 26.771 35.2922 26.31C35.616 25.06 36.001 22.7825 36.001 19C36.001 15.2175 35.616 12.9375 35.2922 11.69ZM26.2785 19.4163L20.2785 23.4163C20.2032 23.4665 20.1156 23.4954 20.0252 23.4997C19.9347 23.5041 19.8448 23.4839 19.765 23.4411C19.6852 23.3984 19.6184 23.3348 19.5719 23.2571C19.5254 23.1794 19.5009 23.0905 19.501 23V15C19.5009 14.9095 19.5254 14.8206 19.5719 14.7429C19.6184 14.6652 19.6852 14.6016 19.765 14.5589C19.8448 14.5161 19.9347 14.4959 20.0252 14.5003C20.1156 14.5046 20.2032 14.5335 20.2785 14.5838L26.2785 18.5838C26.3471 18.6294 26.4033 18.6913 26.4422 18.7639C26.4811 18.8365 26.5015 18.9176 26.5015 19C26.5015 19.0824 26.4811 19.1635 26.4422 19.2361C26.4033 19.3087 26.3471 19.3706 26.2785 19.4163Z" fill="#134386"/>
</svg>

<svg width="44" height="38" fill="none" xmlns="http://www.w3.org/2000/svg"><rect x=".001" width="44" height="38" rx="19" fill="#FBFCFE"/><path d="M35.292 11.69a3.001 3.001 0 0 0-1.811-2.05C29.196 7.985 22.376 8 22.001 8s-7.195-.015-11.48 1.64a3 3 0 0 0-1.811 2.05C8.386 12.938 8 15.217 8 19c0 3.782.385 6.063.709 7.31a3 3 0 0 0 1.811 2.051C14.626 29.945 21.051 30 21.919 30h.165c.867 0 7.296-.055 11.397-1.639a3 3 0 0 0 1.811-2.051c.324-1.25.709-3.527.709-7.31 0-3.783-.385-6.063-.709-7.31Zm-9.014 7.726-6 4a.5.5 0 0 1-.777-.416v-8a.5.5 0 0 1 .777-.416l6 4a.5.5 0 0 1 0 .832Z" fill="#134386"/></svg>
